Numix-Circle/48x48/apps/qdigidoc-client.svg

<?xml version="1.0" encoding="UTF-8" standalone="no"?>
<svg
   xmlns:dc="http://purl.org/dc/elements/1.1/"
   xmlns:cc="http://creativecommons.org/ns#"
   xmlns:rdf="http://www.w3.org/1999/02/22-rdf-syntax-ns#"
   xmlns:svg="http://www.w3.org/2000/svg"
   xmlns="http://www.w3.org/2000/svg"
   xmlns:xlink="http://www.w3.org/1999/xlink"
   xmlns:sodipodi="http://sodipodi.sourceforge.net/DTD/sodipodi-0.dtd"
   xmlns:inkscape="http://www.inkscape.org/namespaces/inkscape"
   viewBox="0 0 48 48"
   id="svg2"
   version="1.1"
   inkscape:version="0.48.5 r10040"
   sodipodi:docname="qdigidoc-client.svg"
   width="100%"
   height="100%">
  <metadata
     id="metadata65">
    <rdf:RDF>
      <cc:Work
         rdf:about="">
        <dc:format>image/svg+xml</dc:format>
        <dc:type
           rdf:resource="http://purl.org/dc/dcmitype/StillImage" />
        <dc:title />
      </cc:Work>
    </rdf:RDF>
  </metadata>
  <sodipodi:namedview
     pagecolor="#ffffff"
     bordercolor="#666666"
     borderopacity="1"
     objecttolerance="10"
     gridtolerance="10"
     guidetolerance="10"
     inkscape:pageopacity="0"
     inkscape:pageshadow="2"
     inkscape:window-width="1280"
     inkscape:window-height="998"
     id="namedview63"
     showgrid="true"
     showguides="false"
     inkscape:zoom="5.6568542"
     inkscape:cx="8.8566277"
     inkscape:cy="28.973145"
     inkscape:window-x="0"
     inkscape:window-y="0"
     inkscape:window-maximized="1"
     inkscape:current-layer="svg2">
    <inkscape:grid
       type="xygrid"
       id="grid4193" />
  </sodipodi:namedview>
  <defs
     id="defs4">
    <linearGradient
       id="linearGradient3788">
      <stop
         style="stop-color:#436ca7;stop-opacity:1;"
         offset="0"
         id="stop3790" />
      <stop
         style="stop-color:#4975b5;stop-opacity:1;"
         offset="1"
         id="stop3792" />
    </linearGradient>
    <linearGradient
       id="linearGradient3764"
       x1="1"
       x2="47"
       gradientUnits="userSpaceOnUse"
       gradientTransform="matrix(0,-1,1,0,-1.5e-6,47.999998)">
      <stop
         stop-color="#e4e4e4"
         stop-opacity="1"
         id="stop7" />
      <stop
         offset="1"
         stop-color="#eee"
         stop-opacity="1"
         id="stop9" />
    </linearGradient>
    <clipPath
       clipPathUnits="userSpaceOnUse"
       id="clipPath3801">
      <rect
         style="opacity:0.17948722;fill:#6f91ba;fill-opacity:1;fill-rule:nonzero;stroke:none"
         id="rect3803"
         width="107.48022"
         height="72.831993"
         x="31.466251"
         y="-30.842405"
         rx="1.942492"
         ry="1.8899082" />
    </clipPath>
    <linearGradient
       inkscape:collect="always"
       xlink:href="#linearGradient3788"
       id="linearGradient3794"
       x1="1"
       y1="24"
       x2="47"
       y2="24"
       gradientUnits="userSpaceOnUse" />
    <linearGradient
       inkscape:collect="always"
       xlink:href="#linearGradient3788"
       id="linearGradient3796"
       gradientUnits="userSpaceOnUse"
       x1="1"
       y1="24"
       x2="47"
       y2="24" />
  </defs>
  <g
     id="g21">
    <path
       d="m 36.31 5 c 5.859 4.062 9.688 10.831 9.688 18.5 c 0 12.426 -10.07 22.5 -22.5 22.5 c -7.669 0 -14.438 -3.828 -18.5 -9.688 c 1.037 1.822 2.306 3.499 3.781 4.969 c 4.085 3.712 9.514 5.969 15.469 5.969 c 12.703 0 23 -10.298 23 -23 c 0 -5.954 -2.256 -11.384 -5.969 -15.469 c -1.469 -1.475 -3.147 -2.744 -4.969 -3.781 z m 4.969 3.781 c 3.854 4.113 6.219 9.637 6.219 15.719 c 0 12.703 -10.297 23 -23 23 c -6.081 0 -11.606 -2.364 -15.719 -6.219 c 4.16 4.144 9.883 6.719 16.219 6.719 c 12.703 0 23 -10.298 23 -23 c 0 -6.335 -2.575 -12.06 -6.719 -16.219 z"
       id="path23"
       opacity="0.05" />
    <path
       d="m 41.28 8.781 c 3.712 4.085 5.969 9.514 5.969 15.469 c 0 12.703 -10.297 23 -23 23 c -5.954 0 -11.384 -2.256 -15.469 -5.969 c 4.113 3.854 9.637 6.219 15.719 6.219 c 12.703 0 23 -10.298 23 -23 c 0 -6.081 -2.364 -11.606 -6.219 -15.719 z"
       id="path25"
       opacity="0.1" />
    <path
       d="m 31.25 2.375 c 8.615 3.154 14.75 11.417 14.75 21.13 c 0 12.426 -10.07 22.5 -22.5 22.5 c -9.708 0 -17.971 -6.135 -21.12 -14.75 a 23 23 0 0 0 44.875 -7 a 23 23 0 0 0 -16 -21.875 z"
       id="path27"
       opacity="0.2" />
  </g>
  <g
     id="g29"
     style="fill:url(#linearGradient3794);fill-opacity:1"
     transform="matrix(0,-1,1,0,0,48)">
    <path
       d="M 24,1 C 36.703,1 47,11.297 47,24 47,36.703 36.703,47 24,47 11.297,47 1,36.703 1,24 1,11.297 11.297,1 24,1 z"
       id="path31"
       style="fill:url(#linearGradient3796);fill-opacity:1"
       inkscape:connector-curvature="0" />
  </g>
  <g
     id="g33" />
  <path
     style="fill:#000000;fill-opacity:0.09803922;fill-rule:nonzero;stroke:none"
     d="M 14.5 17 C 12.567003 17 11 18.567003 11 20.5 L 11 24 L 18 21 L 18 20.5 C 18 18.567003 16.432997 17 14.5 17 z M 22 17 C 21 17 20 18 20 19 L 20 33 C 20 35 21 36 23 36 L 31 36 C 36 36 39 32 39 28 L 39 25 C 39 21 35 17 30 17 L 22 17 z M 26 22 L 29 22 C 30.685585 22 32 24 32 26.5 C 32 29.508233 30.499728 31 29 31 L 26 31 L 26 22 z M 18 23 L 11 26 L 11 32.5 C 11 34.432997 12.567003 36 14.5 36 C 16.432997 36 18 34.432997 18 32.5 L 18 23 z "
     id="path3850" />
  <g
     id="g59">
    <path
       d="m 40.03 7.531 c 3.712 4.084 5.969 9.514 5.969 15.469 0 12.703 -10.297 23 -23 23 c -5.954 0 -11.384 -2.256 -15.469 -5.969 4.178 4.291 10.01 6.969 16.469 6.969 c 12.703 0 23 -10.298 23 -23 0 -6.462 -2.677 -12.291 -6.969 -16.469 z"
       id="path61"
       opacity="0.1" />
  </g>
  <g
     id="g4265"
     transform="translate(1,1)">
    <g
       id="g4267"
       transform="translate(4,1)" />
  </g>
  <path
     style="opacity:1;fill:#f9f9f9;fill-opacity:1;fill-rule:nonzero;stroke:none"
     d="m 17,22 -7,3 0,6.5 c 0,1.932997 1.567003,3.5 3.5,3.5 1.932997,0 3.5,-1.567003 3.5,-3.5 z"
     id="rect3809"
     inkscape:connector-curvature="0"
     sodipodi:nodetypes="ccsssc" />
  <path
     style="opacity:1;fill:#f9f9f9;fill-opacity:1;stroke:none"
     d="m 21,16 c -1,0 -2,1 -2,2 l 0,14 c 0,2 1,3 3,3 l 8,0 c 5,0 8,-4 8,-8 l 0,-3 c 0,-4 -4,-8 -9,-8 z m 4,5 3,0 c 1.685585,0 3,2 3,4.5 0,3.008233 -1.500272,4.5 -3,4.5 l -3,0 z"
     id="path3835"
     inkscape:connector-curvature="0"
     sodipodi:nodetypes="ssssssssscssscc" />
  <path
     style="opacity:1;fill:#f9f9f9;fill-opacity:1;fill-rule:nonzero;stroke:none"
     d="M 13.5 16 C 11.567003 16 10 17.567003 10 19.5 L 10 23 L 17 20 L 17 19.5 C 17 17.567003 15.432997 16 13.5 16 z "
     id="rect3840" />
</svg>

<svg xmlns="http://www.w3.org/2000/svg" viewBox="0 0 48 48">
 <defs>
  <linearGradient id="linearGradient3794" x1="1" x2="47" gradientUnits="userSpaceOnUse">
   <stop style="stop-color:#436ca7;stop-opacity:1"/>
   <stop offset="1" style="stop-color:#4975b5;stop-opacity:1"/>
  </linearGradient>
 </defs>
 <g>
  <path d="m 36.31 5 c 5.859 4.062 9.688 10.831 9.688 18.5 c 0 12.426 -10.07 22.5 -22.5 22.5 c -7.669 0 -14.438 -3.828 -18.5 -9.688 c 1.037 1.822 2.306 3.499 3.781 4.969 c 4.085 3.712 9.514 5.969 15.469 5.969 c 12.703 0 23 -10.298 23 -23 c 0 -5.954 -2.256 -11.384 -5.969 -15.469 c -1.469 -1.475 -3.147 -2.744 -4.969 -3.781 z m 4.969 3.781 c 3.854 4.113 6.219 9.637 6.219 15.719 c 0 12.703 -10.297 23 -23 23 c -6.081 0 -11.606 -2.364 -15.719 -6.219 c 4.16 4.144 9.883 6.719 16.219 6.719 c 12.703 0 23 -10.298 23 -23 c 0 -6.335 -2.575 -12.06 -6.719 -16.219 z" style="opacity:0.05"/>
  <path d="m 41.28 8.781 c 3.712 4.085 5.969 9.514 5.969 15.469 c 0 12.703 -10.297 23 -23 23 c -5.954 0 -11.384 -2.256 -15.469 -5.969 c 4.113 3.854 9.637 6.219 15.719 6.219 c 12.703 0 23 -10.298 23 -23 c 0 -6.081 -2.364 -11.606 -6.219 -15.719 z" style="opacity:0.1"/>
  <path d="m 31.25 2.375 c 8.615 3.154 14.75 11.417 14.75 21.13 c 0 12.426 -10.07 22.5 -22.5 22.5 c -9.708 0 -17.971 -6.135 -21.12 -14.75 a 23 23 0 0 0 44.875 -7 a 23 23 0 0 0 -16 -21.875 z" style="opacity:0.2"/>
 </g>
 <g transform="matrix(0,-1,1,0,0,48)" style="fill:url(#linearGradient3794);fill-opacity:1">
  <path d="M 24,1 C 36.703,1 47,11.297 47,24 47,36.703 36.703,47 24,47 11.297,47 1,36.703 1,24 1,11.297 11.297,1 24,1 z"/>
 </g>
 <path d="m 14.5 17 c -1.933 0 -3.5 1.567 -3.5 3.5 l 0 3.5 l 7 -3 l 0 -0.5 c 0 -1.933 -1.567 -3.5 -3.5 -3.5 z m 7.5 0 c -1 0 -2 1 -2 2 l 0 14 c 0 2 1 3 3 3 l 8 0 c 5 0 8 -4 8 -8 l 0 -3 c 0 -4 -4 -8 -9 -8 l -8 0 z m 4 5 l 3 0 c 1.686 0 3 2 3 4.5 c 0 3.01 -1.5 4.5 -3 4.5 l -3 0 l 0 -9 z m -8 1 l -7 3 l 0 6.5 c 0 1.933 1.567 3.5 3.5 3.5 c 1.933 0 3.5 -1.567 3.5 -3.5 l 0 -9.5 z" style="fill:#000;fill-opacity:0.098;stroke:none;fill-rule:nonzero"/>
 <g>
  <path d="m 40.03 7.531 c 3.712 4.084 5.969 9.514 5.969 15.469 0 12.703 -10.297 23 -23 23 c -5.954 0 -11.384 -2.256 -15.469 -5.969 4.178 4.291 10.01 6.969 16.469 6.969 c 12.703 0 23 -10.298 23 -23 0 -6.462 -2.677 -12.291 -6.969 -16.469 z" style="opacity:0.1"/>
 </g>
 <path d="m 17 22 -7 3 0 6.5 c 0 1.933 1.567 3.5 3.5 3.5 1.933 0 3.5 -1.567 3.5 -3.5 z" style="fill:#f9f9f9;opacity:1;fill-opacity:1;stroke:none;fill-rule:nonzero"/>
 <path d="m 21 16 c -1 0 -2 1 -2 2 l 0 14 c 0 2 1 3 3 3 l 8 0 c 5 0 8 -4 8 -8 l 0 -3 c 0 -4 -4 -8 -9 -8 z m 4 5 3 0 c 1.686 0 3 2 3 4.5 0 3.01 -1.5 4.5 -3 4.5 l -3 0 z" style="fill:#f9f9f9;opacity:1;fill-opacity:1;stroke:none"/>
 <path d="m 13.5 16 c -1.933 0 -3.5 1.567 -3.5 3.5 l 0 3.5 l 7 -3 l 0 -0.5 c 0 -1.933 -1.567 -3.5 -3.5 -3.5 z" style="fill:#f9f9f9;opacity:1;fill-opacity:1;stroke:none;fill-rule:nonzero"/>
</svg>
